src/assets/svg/icons/fa/nuevos/classic/light/toilet-paper-check classic light.svg

<svg xmlns="http://www.w3.org/2000/svg" viewBox="0 0 640 512"><!--! Font Awesome Pro 6.4.0 by @fontawesome - https://fontawesome.com License - https://fontawesome.com/license (Commercial License) Copyright 2023 Fonticons, Inc. --><path d="M16 479c.2-5.3 1.7-10.6 4.5-15.4l0-.1c2.6-4.6 5-9.4 7.3-14.3C63.6 372.8 64 272.2 64 192C64 86 107 0 160 0H464h32c40.7 0 69 32.2 85.2 64.6C598.3 98.8 608 143.9 608 192s-9.7 93.2-26.8 127.4C565 351.8 536.7 384 496 384c-24.1 0-43.8-11.3-59.3-27.2c2.1-14.2 4.1-29.6 5.7-46c14.2 25.6 33 41.2 53.6 41.2c44.2 0 80-71.6 80-160s-35.8-160-80-160s-80 71.6-80 160c0 44.7-2.2 83.7-5.6 117.7c-.3 2.5-.5 4.9-.8 7.4c-9 82.3-25.6 133.1-36.3 158.9c-10 24-33.2 36.1-55.4 36.1H48c-11.5 0-22.2-6.2-27.8-16.2c-2.9-5.2-4.3-11-4.2-16.8zM160 32c-7.9 0-23.6 7.2-39.3 38.5C106 100 96 142.9 96 192c0 42.4-.1 92.6-5.8 142.2c-5.7 49.5-17.3 100.7-41.6 144.8c-.2 .3-.4 .6-.5 .9l0 0H317.9c11.4 0 21.6-6.1 25.9-16.3C357.3 431 384 347.1 384 192c0-48.1 9.7-93.2 26.8-127.4c5.7-11.3 12.8-22.6 21.5-32.6H160zM496 240c6.4 0 11.9-11.3 14.5-27.6c1-6.2 1.5-13.1 1.5-20.4s-.5-14.2-1.5-20.4c-2.6-16.3-8.1-27.6-14.5-27.6s-11.9 11.3-14.5 27.6c-1 6.2-1.5 13.1-1.5 20.4s.5 14.2 1.5 20.4c2.6 16.3 8.1 27.6 14.5 27.6zm0 32c-16.2 0-26.6-9.9-31.4-16c-5.1-6.4-8.2-13.8-10.3-20c-4.2-12.7-6.3-28.3-6.3-44.1s2.1-31.3 6.3-44.1c2.1-6.2 5.2-13.5 10.3-20c4.8-6.1 15.1-16 31.4-16s26.6 9.9 31.4 16c5.1 6.4 8.2 13.8 10.3 20c4.2 12.7 6.3 28.3 6.3 44.1s-2.1 31.3-6.3 44.1c-2.1 6.2-5.2 13.5-10.3 20c-4.8 6.1-15.1 16-31.4 16zM307.3 187.3l-72 72c-6.2 6.2-16.4 6.2-22.6 0l-40-40c-6.2-6.2-6.2-16.4 0-22.6s16.4-6.2 22.6 0L224 225.4l60.7-60.7c6.2-6.2 16.4-6.2 22.6 0s6.2 16.4 0 22.6z"/></svg>

<svg xmlns="http://www.w3.org/2000/svg" viewBox="0 0 640 512"><path d="M235.3 259.3C229.1 265.6 218.9 265.6 212.7 259.3L172.7 219.3C166.4 213.1 166.4 202.9 172.7 196.7C178.9 190.4 189.1 190.4 195.3 196.7L223.1 225.4L284.7 164.7C290.9 158.4 301.1 158.4 307.3 164.7C313.6 170.9 313.6 181.1 307.3 187.3L235.3 259.3zM15.1 479C16.16 473.7 17.66 468.4 20.5 463.6L20.53 463.6C23.09 458.9 25.51 454.2 27.78 449.3C63.61 372.8 64 272.2 64 192C64 85.96 106.1 0 160 0H496C536.7 0 565 32.2 581.2 64.55C598.3 98.82 608 143.9 608 192C608 240.1 598.3 285.2 581.2 319.4C565 351.8 536.7 384 496 384C471.9 384 452.2 372.7 436.7 356.8C438.9 342.6 440.8 327.3 442.4 310.8C456.6 336.4 475.4 352 496 352C540.2 352 576 280.4 576 192C576 103.6 540.2 32 496 32C451.8 32 416 103.6 416 192C416 236.7 413.8 275.7 410.4 309.7C410.1 312.1 409.9 314.6 409.6 317C400.6 399.4 384 450.1 373.3 475.9C363.3 499.9 340.2 512 317.9 512H48C36.47 512 25.84 505.8 20.16 495.8C17.21 490.6 15.82 484.8 15.1 479H15.1zM120.7 70.55C106 99.98 96 142.9 96 192C96 234.4 95.92 284.6 90.19 334.2C84.47 383.7 72.9 434.9 48.54 479.1C48.36 479.4 48.19 479.7 48 480H317.9C329.3 480 339.5 473.9 343.8 463.7C357.3 431 384 347.1 384 192C384 143.9 393.7 98.82 410.8 64.55C416.5 53.22 423.6 41.91 432.3 32H160C152.1 32 136.4 39.2 120.7 70.55V70.55zM464.6 256C459.6 249.6 456.4 242.3 454.3 236.1C450.1 223.3 448 207.7 448 192C448 176.3 450.1 160.7 454.3 147.9C456.4 141.7 459.6 134.4 464.6 127.1C469.4 121.9 479.8 112 496 112C512.2 112 522.6 121.9 527.4 127.1C532.4 134.4 535.6 141.7 537.7 147.9C541.9 160.7 544 176.3 544 192C544 207.7 541.9 223.3 537.7 236.1C535.6 242.3 532.4 249.6 527.4 256C522.6 262.1 512.2 272 496 272C479.8 272 469.4 262.1 464.6 256V256zM510.5 212.4C511.5 206.2 512 199.3 512 192C512 184.7 511.5 177.8 510.5 171.6C507.9 155.3 502.4 144 496 144C489.6 144 484.1 155.3 481.5 171.6C480.5 177.8 480 184.7 480 192C480 199.3 480.5 206.2 481.5 212.4C484.1 228.7 489.6 240 496 240C502.4 240 507.9 228.7 510.5 212.4z"/></svg>
